svgs/sharp-regular/floppy-disks.svg

<svg xmlns="http://www.w3.org/2000/svg" viewBox="0 0 512 512"><!--! Font Awesome Pro 6.6.0 by @fontawesome - https://fontawesome.com License - https://fontawesome.com/license (Commercial License) Copyright 2024 Fonticons, Inc. --><path d="M96 416l48 0 320 0 48 0 0-48 0-256L400 0 224 0 176 0 144 0 96 0l0 48 0 320 0 48zM176 48l0 72 0 24 24 0 160 0 24 0 0-24 0-68.1 80 80L464 368l-320 0 0-320 32 0zm160 0l0 48L224 96l0-48 112 0zM48 120l0-24L0 96l0 24L0 488l0 24 24 0 368 0 24 0 0-48-24 0L48 464l0-344zM368 256a64 64 0 1 0 -128 0 64 64 0 1 0 128 0z"/></svg>

<svg xmlns="http://www.w3.org/2000/svg" viewBox="0 0 512 512"><!--! Font Awesome Pro 6.4.2 by @fontawesome - https://fontawesome.com License - https://fontawesome.com/license (Commercial License) Copyright 2023 Fonticons, Inc. --><path d="M96 416h48H464h48V368 112L400 0H224 176 144 96V48 368v48zM176 48v72 24h24H360h24V120 51.9l80 80V368H144V48h32zm160 0V96H224V48H336zM48 120V96H0v24V488v24H24 392h24V464H392 48V120zM368 256a64 64 0 1 0 -128 0 64 64 0 1 0 128 0z"/></svg>
